X: 95
T: the Sailor's Wife   [Em]
C: attr. Niel Gow
O: 1780
R: jig
Z: 1997 by John Chambers <jc:trillian.mit.edu>
M: 6/8
L: 1/8
K: Em
B \
| "Em"EFG F2E | "Em"e2f g2a | "Em"bag fed | "G"BdB "D"AFD \
| "Em"EFG F2E | "Em"e2f g2a | "Em"bag "B7"fe^d | "Em"e3- e2 :|
|: "D7"f \
| "G"gab gab | "G"gab bag | "D"fda fda | "D"fga "B7"agf \
| "Em"gab bag | "D"fga agf | "Em"efg "B7"fe^d | "Em"e3- e2 :|

%%sep 1 1 500

